svg/N_Arrows/16.svg

<?xml version="1.0" encoding="UTF-8" standalone="no"?>
<!-- Created with Inkscape (http://www.inkscape.org/) -->
<svg
   xmlns:dc="http://purl.org/dc/elements/1.1/"
   xmlns:cc="http://web.resource.org/cc/"
   xmlns:rdf="http://www.w3.org/1999/02/22-rdf-syntax-ns#"
   xmlns:svg="http://www.w3.org/2000/svg"
   xmlns="http://www.w3.org/2000/svg"
   xmlns:sodipodi="http://sodipodi.sourceforge.net/DTD/sodipodi-0.dtd"
   xmlns:inkscape="http://www.inkscape.org/namespaces/inkscape"
   width="744.09448819"
   height="1052.3622047"
   id="svg2"
   sodipodi:version="0.32"
   inkscape:version="0.44.1"
   sodipodi:docbase="F:\QGIS_N_ARROWS\NORD_EST"
   sodipodi:docname="FINALE.svg"
   inkscape:export-filename="F:\QGIS_N_ARROWS\NORD_EST\FINALE.png"
   inkscape:export-xdpi="300"
   inkscape:export-ydpi="300">
  <defs
     id="defs4" />
  <sodipodi:namedview
     id="base"
     pagecolor="#ffffff"
     bordercolor="#666666"
     borderopacity="1.0"
     inkscape:pageopacity="0.0"
     inkscape:pageshadow="2"
     inkscape:zoom="1.4"
     inkscape:cx="375"
     inkscape:cy="498.4525"
     inkscape:document-units="px"
     inkscape:current-layer="layer1"
     showgrid="true"
     inkscape:window-width="1280"
     inkscape:window-height="744"
     inkscape:window-x="-4"
     inkscape:window-y="-4" />
  <metadata
     id="metadata7">
    <rdf:RDF>
      <cc:Work
         rdf:about="">
        <dc:format>image/svg+xml</dc:format>
        <dc:type
           rdf:resource="http://purl.org/dc/dcmitype/StillImage" />
      </cc:Work>
    </rdf:RDF>
  </metadata>
  <g
     inkscape:label="Livello 1"
     inkscape:groupmode="layer"
     id="layer1">
    <g
       id="g2928">
      <flowRoot
         transform="translate(73.02687,329.2014)"
         style="font-size:56px;font-family:Arial Black"
         id="flowRoot2798"
         xml:space="preserve"><flowRegion
           id="flowRegion2800"><rect
             style="font-size:56px;font-family:Arial Black"
             y="270.93362"
             x="321.42856"
             height="74.285713"
             width="68.571426"
             id="rect2802" /></flowRegion><flowPara
           id="flowPara2804">E</flowPara></flowRoot>      <flowRoot
         transform="translate(-163.2756,98.48723)"
         style="font-size:56px;font-family:Arial Black"
         id="flowRoot2790"
         xml:space="preserve"><flowRegion
           id="flowRegion2792"><rect
             style="font-size:56px;font-family:Arial Black"
             y="270.93362"
             x="321.42856"
             height="74.285713"
             width="68.571426"
             id="rect2794" /></flowRegion><flowPara
           id="flowPara2796">N</flowPara></flowRoot>      <path
         sodipodi:nodetypes="cccccccc"
         id="path8017"
         d="M 167.02003,489.46471 L 167.02003,580.04063 L 194.42177,580.04063 L 194.42177,489.46471 L 224.75941,498.03614 L 181.69953,421.27893 L 136.04684,499.46471 L 167.02003,489.46471 z "
         style="fill:none;fill-rule:evenodd;stroke:black;stroke-width:5.2525382;stroke-linecap:butt;stroke-linejoin:miter;stroke-miterlimit:4;stroke-dasharray:none;stroke-opacity:1" />
      <path
         sodipodi:nodetypes="cccccccc"
         id="path2035"
         d="M 320.48079,610.40766 L 229.90487,610.40766 L 229.90487,637.8094 L 320.48079,637.8094 L 311.90936,668.14704 L 388.66657,625.08716 L 310.48079,579.43446 L 320.48079,610.40766 z "
         style="fill:none;fill-rule:evenodd;stroke:black;stroke-width:5.2525382;stroke-linecap:butt;stroke-linejoin:miter;stroke-miterlimit:4;stroke-dasharray:none;stroke-opacity:1" />
      <path
         transform="matrix(0.933215,0,0,0.883569,158.3361,161.9905)"
         d="M 73.571428 526.29077 A 50.357143 50.357143 0 1 1  -27.142859,526.29077 A 50.357143 50.357143 0 1 1  73.571428 526.29077 z"
         sodipodi:ry="50.357143"
         sodipodi:rx="50.357143"
         sodipodi:cy="526.29077"
         sodipodi:cx="23.214285"
         id="path2037"
         style="opacity:0.97000002;fill:none;fill-opacity:1;stroke:black;stroke-width:12.30000019;stroke-linecap:square;stroke-linejoin:miter;stroke-miterlimit:4;stroke-dasharray:none;stroke-opacity:1"
         sodipodi:type="arc" />
      <path
         id="path2924"
         d="M 207.14286,595.21932 L 150.71429,656.6479"
         style="fill:none;fill-rule:evenodd;stroke:black;stroke-width:6.4;stroke-linecap:butt;stroke-linejoin:miter;stroke-opacity:1;stroke-miterlimit:4;stroke-dasharray:none" />
      <path
         id="path2926"
         d="M 150.37143,595.56218 L 206.8,656.99076"
         style="fill:none;fill-rule:evenodd;stroke:black;stroke-width:6.4000001;stroke-linecap:butt;stroke-linejoin:miter;stroke-miterlimit:4;stroke-dasharray:none;stroke-opacity:1" />
    </g>
  </g>
</svg>

<svg xmlns="http://www.w3.org/2000/svg" viewBox="0 0 744.09 1052.36" xmlns:xlink="http://www.w3.org/1999/xlink"><g font-family="Arial Black" font-size="56"><flowRoot transform="translate(73.03 329.2)"><flowRegion><path d="m321.43 270.93h68.57v74.28h-68.57z" id="0"/></flowRegion><flowPara>E</flowPara></flowRoot><flowRoot transform="translate(-163.28 98.49)"><flowRegion><use xlink:href="#0"/></flowRegion><flowPara>N</flowPara></flowRoot></g><g fill="none" stroke="#000"><g fill-rule="evenodd" stroke-width="5.253"><path d="m167.02 489.46v90.58h27.402v-90.58l30.338 8.571-43.06-76.76-45.653 78.19 30.973-10z"/><path d="m320.48 610.41h-90.58v27.402h90.58l-8.571 30.338 76.76-43.06-78.19-45.653 10 30.973z"/></g><path transform="matrix(.93322 0 0 .88357 158.34 161.99)" d="M73.57143 526.29077A50.35714 50.35714 0 1 1 -27.14286 526.29077 50.35714 50.35714 0 1 1 73.57143 526.29077z" opacity=".97" stroke-linecap="square" stroke-width="12.3"/><g fill-rule="evenodd" stroke-width="6.4"><path d="m207.14 595.22l-56.43 61.43"/><path d="m150.37 595.56l56.43 61.43"/></g></g></svg>
